X:17
T:Father Dollard's Hornpipe
M:C|
S:Darcie's TrTuneSbk Vo.2 (1998) p. 18
R:hornpipe
D:ry Bergin: Feadoga Stain 2.
Z: Wosika
K:D
|:AF| D2 (3DDD DFAB| d2fe dcBA| FA~A2 dAFA| (3Bcd AF GEFE|
D2 (3DDD DFAB| d2fe dcBA| FA~A2 (3Bcd GE| F2D2 D2:|
|:de| fddc d3 e| fd~d2 bgaf| gece Acef| ~g3 b agfe|
Ad~d2 (3Bcd AF| Ad~d2 fdBd| A2 fa geAc| e2 dc d2:|
